X:14007
T:Niel Gow's Lament for the Death of his Second Wife
T:Neil Gow's Lament
R:Air
C:Niel Gow 1805
O:Scotland
M:6/8
L:1/8
Q:1/8=120
K:D
D/B,/|"D"A,>B,D "Bm"D>ED|"Em"EFA "G"B2 d/B/|"D"A>FD "Em"E>DE|"D"FDB, "G"B,2 D/B,/|
"D"A,>B,D "Bm"D>ED|"Em"EFA "G"d2 c/B/|"D"A>FD "G"B,2 A,|"G"B, "Em7"D D "D"D2:|
(3A/B/c/|"D"d>fd "A"ecA|"G"B/A/B/c/d B/A/G/F/E/<D/|"Em"E2 D/E/ "D"F>ED|"Bm"FDB, "Em7"B,2 (3A/B/c/|
"D"d>af "A"ec>A|"G"B/A/B/c/d B/A/G/F/E/<D/|"Em"E2 D/E/ "D"F>D"G"B,|"D"A,B,"Em7"D D2 "D"(3A/B/c/|
"D"d>fd "A"ec>A|"G"B/A/B/c/d B/A/G/F/E/<D/|"D"F/D/A/F/d/A/ "G"B/A/G/F/E//D3/4|"D"F2 "Em"E "A7"E>DB,|
"D"A,>B,D "Bm"D3/2E/D|"Em"EFA "G"d>cB|"D"A>FD "G"B,2 A,|"G"B, "Em7"D D "D"D2|]

